X: 40484
T: Tombrack, The
R: slide
M: 12/8
K: Gmajor
|:G2 B BAB G2 B D2F|G2 B BAG A2 B cBA|
G2 B BAB G2 B D2 F|G2 B D2 E G3 G3:|
|:B2 d dBA B2 e edc|B2 d dBA e2 d B2 A|
B2 d dBA B2 e ed^c|d2 B A2 B G3 G3:|

